X:1
T:Moyle, 87.87 D
T:Moyle, 87.87 D
T:Irish dirge, arr. by Charles Beecher, 1855
T:Public Domain Courtesy of the Cyber Hymnal™
C:Irish dirge, arr. by Charles Beecher, 1855
Z:Public Domain
Z:Courtesy of the Cyber Hymnal™
%%score ( 1 2 ) ( 3 4 )
L:1/8
Q:1/4=105
M:4/4
K:Bb
V:1 treble 
V:2 treble 
V:3 bass 
V:4 bass 
V:1
 [DB]2 [DB]2 [DA]2 [DA]2 | (GB) (AG) [D^F]2 D2 | [DG]2 [DG]2 [D^F]2 D2 | [DG]2 [FA]2 [FB]4 | %4
 [FB]2 (dB) [FA]2 (BA) | ([EG][GB]) (AG) [D^F]2 D2 | [DG]2 [EG]2 (BA) (GF) | [DF]2 [FA]2 [FB]4 | %8
 ([EG][FA]) (Bc) [Fd]3 [Gd] | [Ge]2 (dc) [^Fd]2 G2 | [DG]3 [EG] [Ge]3 [Gd] | [Gc]2 [GB]2 A4 | %12
 [Dd]3 [DG] [DG]3 [DB] | (AB) (AG) [D^F]2 D2 | [DG]3 [DG] (BA) (G^F) | [DG]2 (A>B) [DG]4 |] %16
V:2
 x8 | D2 E2 x D2 x | x6 D2 | x8 | x2 F2 x F2 x | x2 E2 x D2 x | x4 E2 D2 | x8 | x2 F2 x4 | %9
 x2 G2 x G2 x | x8 | x4 (F2 E2) | x8 | D2 D2 x D2 x | x4 D2 D2 | x2 D2 x4 |] %16
V:3
 G,2 G,2 [D,^F,]2 F,2 | [B,,G,]2 [C,C]2 [D,A,]2 ^F,2 | [B,,G,]2 [G,,B,]2 [D,A,]2 [^F,A,]2 | %3
 [G,B,]2 [F,C]2 [B,,D]4 | [B,,D]2 (B,D) [F,C]2 [D,B,]2 | [E,B,]2 [C,C]2 [D,A,]2 [^F,A,]2 | %6
 [G,B,]2 [E,B,]2 [C,C]2 (B,A,) | [G,B,]2 [F,C]2 [B,,D]4 | ([E,B,][C,E]) ([D,D][F,A,]) B,3 [G,B,] | %9
 [E,B,]2 [E,C]2 [D,A,]2 G,2 | [G,B,]3 [E,B,] [C,C]3 [D,=B,] | [E,C]2 [=E,C]2 C4 | %12
 [G,B,]3 [G,B,] [G,B,]3 [G,D] | (CD) (CB,) [D,A,]2 ^F,2 | [B,,G,]3 [G,,B,] (DC) (B,A,) | %15
 [G,B,]2 [D,C]2 [G,,B,]4 |] %16
V:4
 G,2 G,2 (D,C,) x2 | x6 (D,C,) | x8 | x8 | x2 B,,2 x4 | x8 | x6 D,2 | x8 | x4 B,3 x | x6 G,2 | x8 | %11
 x4 (F,2 ^F,2) | x8 | D,2 D,2 x (D,C,) x | x4 D,2 D,2 | x8 |] %16

